Increase/img/customers/05.svg

<svg width="117" height="29" viewBox="0 0 117 29" fill="none" xmlns="http://www.w3.org/2000/svg">
<path fill-rule="evenodd" clip-rule="evenodd" d="M105.843 17.6368C105.843 15.3331 104.873 12.6667 101.856 8.94974L94.5785 0H84.4471L90.215 6.27897C91.1868 7.32605 92.4245 8.26702 92.4245 8.26702C91.0219 7.48259 89.246 7.16864 87.8434 7.16864C84.5027 7.16864 81.1073 7.8496 78.089 9.47152C74.8558 11.1978 72.6973 14.0764 72.6973 17.8977C72.6973 20.8276 74.047 23.0783 75.7711 24.8046C79.651 28.5746 86.7122 28.9399 89.2997 28.9399C93.1267 28.9399 99.1105 28.1015 102.504 25.1194C104.5 23.3401 105.847 20.8807 105.847 17.6377L105.843 17.6368ZM117 7.74524H108.215V28.2598H117V7.74524ZM44.7786 28.2598L25.3746 0H14.4882L17.4965 3.45343L0.421387 28.2598H10.2304L13.1567 23.6027H31.658L34.6454 28.258H44.7786V28.2598ZM70.4868 19.6771V7.74524H61.973V16.9037C61.973 19.5214 61.8637 20.2519 61.7025 20.932C61.1105 22.8157 59.0612 23.6523 56.9574 23.6523C54.0475 23.6523 52.6995 22.553 52.1622 20.8258C51.9982 20.251 51.9463 19.6249 51.8926 18.9952C51.8379 18.316 51.8926 17.5829 51.8926 16.7976V7.74524H43.2694V19.7283C43.2694 22.3991 44.1847 24.3863 45.6939 25.7482C48.2805 28.2067 52.6467 28.9407 56.6896 28.9407C61.595 28.9407 65.3692 28.2598 68.0633 25.6951C69.4659 24.3863 70.4896 22.66 70.4896 19.6771H70.4868ZM97.4365 17.8977C97.4365 20.0423 95.9811 21.6651 94.1486 22.5548C92.6404 23.3401 90.8607 23.5488 89.297 23.5488C87.7341 23.5488 85.9016 23.2366 84.3925 22.5026C82.56 21.6138 81.1592 19.8866 81.1592 18.0012C81.1592 15.7523 82.9371 13.9729 85.0391 13.0824C86.3324 12.5058 87.8962 12.2971 89.1348 12.2971C90.3207 12.2971 92.0466 12.4536 93.3927 12.978C95.819 13.9729 97.4365 15.8557 97.4365 17.8977ZM28.2381 18.0879H16.5119L22.3554 8.726L28.239 18.0879H28.2381Z" fill="#D6DAE5"/>
</svg>

<svg width="117" height="29" fill="none" xmlns="http://www.w3.org/2000/svg"><path fill-rule="evenodd" clip-rule="evenodd" d="M105.843 17.637c0-2.304-.97-4.97-3.987-8.687L94.579 0H84.447l5.768 6.279c.972 1.047 2.21 1.988 2.21 1.988-1.403-.784-3.179-1.098-4.582-1.098-3.34 0-6.736.68-9.754 2.303-3.233 1.726-5.392 4.604-5.392 8.426 0 2.93 1.35 5.18 3.074 6.907 3.88 3.77 10.941 4.135 13.529 4.135 3.827 0 9.81-.838 13.204-3.82 1.996-1.78 3.343-4.24 3.343-7.482l-.004-.001zM117 7.745h-8.785V28.26H117V7.745zM44.779 28.26L25.375 0H14.488l3.009 3.453L.42 28.26h9.81l2.926-4.657h18.501l2.987 4.655H44.78v.002zm25.708-8.583V7.745h-8.514v9.159c0 2.617-.11 3.348-.27 4.028-.593 1.884-2.642 2.72-4.746 2.72-2.91 0-4.258-1.099-4.795-2.826-.164-.575-.216-1.201-.27-1.83-.054-.68 0-1.413 0-2.198V7.745H43.27v11.983c0 2.671.916 4.658 2.425 6.02 2.587 2.459 6.953 3.193 10.996 3.193 4.905 0 8.68-.681 11.373-3.246 1.403-1.309 2.427-3.035 2.427-6.018h-.003zm26.95-1.78c0 2.145-1.456 3.768-3.288 4.658-1.509.785-3.288.994-4.852.994-1.563 0-3.395-.312-4.904-1.046-1.833-.89-3.234-2.616-3.234-4.502 0-2.249 1.778-4.028 3.88-4.919 1.293-.576 2.857-.785 4.096-.785 1.186 0 2.912.157 4.258.681 2.426.995 4.043 2.878 4.043 4.92zm-69.199.19H16.512l5.843-9.361 5.884 9.362z" fill="#D6DAE5"/></svg>
